X:5933
T:Seibiser Walzer
O:england
C:S. Wascher: Leirertänze
M:3/4
L:1/4
K:G
D|G2D|B2G|dd/c/B/A/|G2B|AcB|AcB|Add|d/c/B/A/G/F/|G2D|B2D|
dd/c/B/A/|G2B|AcB|AGF|G/F/G/A/B/A/|G2:||:B/c/|d.d/.d/.d/.d/|dBc|dBc|d2d|
e2d|c2B|A2B|c2B/c/|d.d/.d/.d/.d/|dBc|dBc|d2d|e2d|cBA|B/d/c/B/A/c/|B2:|


